svgs/thin/id-card-clip.svg

<svg xmlns="http://www.w3.org/2000/svg" viewBox="0 0 576 512"><!-- Font Awesome Pro 6.0.0-alpha2 by @fontawesome - https://fontawesome.com License - https://fontawesome.com/license (Commercial License) --><path d="M528 64H392C387.582 64 384 67.582 384 72S387.582 80 392 80H528C545.674 80 560 94.328 560 112V464C560 481.672 545.674 496 528 496H48C30.326 496 16 481.672 16 464V112C16 94.328 30.326 80 48 80H184C188.418 80 192 76.418 192 72S188.418 64 184 64H48C21.49 64 0 85.492 0 112V464C0 490.508 21.49 512 48 512H528C554.51 512 576 490.508 576 464V112C576 85.492 554.51 64 528 64ZM256 128H320C337.674 128 352 113.672 352 96V32C352 14.328 337.674 0 320 0H256C238.326 0 224 14.328 224 32V96C224 113.672 238.326 128 256 128ZM240 32C240 23.176 247.178 16 256 16H320C328.822 16 336 23.176 336 32V96C336 104.824 328.822 112 320 112H256C247.178 112 240 104.824 240 96V32ZM288 320C323.346 320 352 291.348 352 256S323.346 192 288 192S224 220.652 224 256S252.654 320 288 320ZM288 208C314.467 208 336 229.531 336 256S314.467 304 288 304S240 282.469 240 256S261.533 208 288 208ZM176 440C176 444.422 179.578 448 184 448S192 444.422 192 440V432C192 396.703 220.703 368 256 368H320C355.297 368 384 396.703 384 432V440C384 444.422 387.578 448 392 448S400 444.422 400 440V432C400 387.891 364.109 352 320 352H256C211.891 352 176 387.891 176 432V440Z"/></svg>

<svg xmlns="http://www.w3.org/2000/svg" viewBox="0 0 576 512"><!--! Font Awesome Pro 6.3.0 by @fontawesome - https://fontawesome.com License - https://fontawesome.com/license (Commercial License) Copyright 2023 Fonticons, Inc. --><path d="M528 64h-136C387.6 64 384 67.58 384 72s3.582 8 8 8h136c17.67 0 32 14.33 32 32v352c0 17.67-14.33 32-32 32h-480c-17.67 0-32-14.33-32-32v-352c0-17.67 14.33-32 32-32h136C188.4 80 192 76.42 192 72S188.4 64 184 64H48C21.49 64 0 85.49 0 112v352C0 490.5 21.49 512 48 512h480c26.51 0 48-21.49 48-48v-352C576 85.49 554.5 64 528 64zM256 128h64c17.67 0 32-14.33 32-32V32c0-17.67-14.33-32-32-32H256C238.3 0 224 14.33 224 32v64C224 113.7 238.3 128 256 128zM240 32c0-8.824 7.178-16 16-16h64c8.822 0 16 7.176 16 16v64c0 8.824-7.178 16-16 16H256C247.2 112 240 104.8 240 96V32zM288 320c35.35 0 64-28.65 64-64s-28.65-64-64-64S224 220.7 224 256S252.7 320 288 320zM288 208c26.47 0 48 21.53 48 48S314.5 304 288 304S240 282.5 240 256S261.5 208 288 208zM176 440C176 444.4 179.6 448 184 448S192 444.4 192 440V432c0-35.3 28.7-64 64-64h64c35.3 0 64 28.7 64 64v8c0 4.422 3.578 8 8 8s8-3.578 8-8V432c0-44.11-35.89-80-80-80H256c-44.11 0-80 35.89-80 80V440z"/></svg>
